packages/web/public/tokens/prov.svg

<svg fill="none" height="311" viewBox="0 0 311 311" width="311" xmlns="http://www.w3.org/2000/svg" xmlns:xlink="http://www.w3.org/1999/xlink"><clipPath id="a"><path d="m0 0h311v311h-311z"/></clipPath><g clip-path="url(#a)"><path clip-rule="evenodd" d="m161.577 1.55355c-3.585-2.070095-8.003-2.070097-11.588-.00001l-124.6314 71.95576c-3.5855 2.0701-5.7942 5.8957-5.7942 10.0359v143.9118c0 4.14 2.2087 7.966 5.7942 10.036l50.4707 29.139v-70.309-41.036-34.563c0-4.023 2.0857-7.757 5.5103-9.867l34.4564-21.2269 33.889-20.8769c3.727-2.296 8.43-2.296 12.157 0l33.888 20.8769 34.457 21.2269c3.425 2.11 5.511 5.844 5.511 9.867v34.563 34.564c0 4.022-2.086 7.757-5.511 9.867l-34.457 21.226-33.888 20.877c-3.247 2-6.511-1.304-6.511-5.117v-27.373c0-3.731 3.334-6.589 6.511-8.545l28.378-17.483c3.425-2.109 5.51-5.844 5.51-9.866v-28.092c0-4.022-2.085-7.757-5.51-9.867l-28.378-17.482c-3.727-2.296-8.43-2.296-12.157 0l-28.378 17.482c-3.425 2.11-5.511 5.845-5.511 9.867v20.378c0 .009-.007.016-.016.016-.004 0-.007.002-.01.004-.004.003-.006.007-.006.013v85.72c0 .009.007.016.016.016s.016.007.016.016v36.612c0 .522-.033 1.033-.097 1.531l34.291 19.797c3.585 2.07 8.003 2.07 11.588 0l124.631-71.955c3.586-2.07 5.794-5.896 5.794-10.036v-143.9118c0-4.1402-2.208-7.9658-5.794-10.0359z" fill="#4e7fdc" fill-rule="evenodd"/></g></svg>

<svg width="311" height="311" viewBox="0 0 311 311" fill="none" xmlns="http://www.w3.org/2000/svg">
<g clip-path="url(#clip0_4930_4712)">
<path fill-rule="evenodd" clip-rule="evenodd" d="M161.577 1.55355C157.992 -0.516545 153.574 -0.516547 149.989 1.55354L25.3576 73.5093C21.7721 75.5794 19.5634 79.405 19.5634 83.5452V227.457C19.5634 231.597 21.7721 235.423 25.3576 237.493L75.8283 266.632V196.323V155.287V120.724C75.8283 116.701 77.914 112.967 81.3386 110.857L115.795 89.6301L149.684 68.7532C153.411 66.4572 158.114 66.4572 161.841 68.7532L195.729 89.6301L230.186 110.857C233.611 112.967 235.697 116.701 235.697 120.724V155.287V189.851C235.697 193.873 233.611 197.608 230.186 199.718L195.729 220.944L161.841 241.821C158.594 243.821 155.33 240.517 155.33 236.704V209.331C155.33 205.6 158.664 202.742 161.841 200.786L190.219 183.303C193.644 181.194 195.729 177.459 195.729 173.437V145.345C195.729 141.323 193.644 137.588 190.219 135.478L161.841 117.996C158.114 115.7 153.411 115.7 149.684 117.996L121.306 135.478C117.881 137.588 115.795 141.323 115.795 145.345V165.723C115.795 165.732 115.788 165.739 115.779 165.739C115.775 165.739 115.772 165.741 115.769 165.743C115.765 165.746 115.763 165.75 115.763 165.756V251.476C115.763 251.485 115.77 251.492 115.779 251.492C115.788 251.492 115.795 251.499 115.795 251.508V288.12C115.795 288.642 115.762 289.153 115.698 289.651L149.989 309.448C153.574 311.518 157.992 311.518 161.577 309.448L286.208 237.493C289.794 235.423 292.002 231.597 292.002 227.457V83.5452C292.002 79.405 289.794 75.5794 286.208 73.5093L161.577 1.55355Z" fill="#4E7FDC"/>
</g>
<defs>
<clipPath id="clip0_4930_4712">
<rect width="311" height="311" fill="white"/>
</clipPath>
</defs>
</svg>
